X:1
T:Title
%%score { ( 1 3 ) | 2 }
L:1/8
Q:1/4=100
M:4/4
K:G
V:1 treble nm="Grand Piano"
V:3 treble 
V:2 treble 
V:1
 B4 _B2 =B2 | c2 B2 B4 | G4 G2 [DFA]2 | [DGB]6 z2 | B4 _B2 =B2 | c2 B2 B4 | A4 [DF]2 [^CE]2 | %7
w: W.~H.~Doane * *|||||||
 D6 z2 | [FA]4 [=F^G]2 [^FA]2 | [GB]2 A2 G4 | B4 _B2 =B2 | c2 B2 [DFA]4 | [DGd]4 [DFc]2 [DGB]2 | %13
w: ||||||
 z4 c2 z2 | [B,DG]4 [DGB]2 [CDA]2 | [B,DG]6 z2 |] %16
w: |||
V:2
 [G,DG]4 [G,^CG]2 [G,DG]2 | [G,EG]2 [G,DG]2[K:bass] [G,B,D]4 | [E,B,E]4 [E,B,E]2 D,2 | G,,6 z2 | %4
 [G,DG]4 [G,^CG]2 [G,DG]2 | [G,EG]2 [G,DG]2 [G,DG]4 | [A,DF]4[K:bass] [A,,A,]2 [A,,G,]2 | %7
 [D,F,]6 z2 | [D,D]4 [D,D]2 [D,D]2 | [D,D]2 [D,CD]2[K:treble] [G,B,D]4 | [G,DG]4 [G,^CG]2 [G,DG]2 | %11
 [G,EG]2 [G,DG]2[K:bass] D,2 C,2 | B,,4 A,,2 G,,2 | C,2 C,2 A,,2 C,2 | D,4 D,2 D,2 | G,,6 z2 |] %16
V:3
 x8 | x8 | x8 | x8 | x8 | x8 | x8 | x8 | x8 | x8 | x8 | x8 | x8 | [DEB]2 [CEA]2 [CE]2- [CEA]2 | %14
 x8 | x8 |] %16

